X:740
T:Three Weddings
M:6/8
L:1/8
C:Colin Hume, 2007
H:For Terri Akin and John McClure
S:Colin Hume's website,  colinhume.com  - chords can also be printed below the stave.
Q:3/8=118
K:C
P:A
| G |: "C"c2G e2c | "C"g2f edc | "F"f2A ABc | "G"d2c BAG | "F"A2A f2A |\
"G"B2B g2B |1 "Am"c2c "F"agf | "C"edc "G"BAG :|2 "Am"c2c "F"afe | "G7"d3 "C"c3 |]
K:G
P:B
|: "G"d3 "D/F#"d2c | "Em"BAB "G7/D"GBd | "C"e2e edc | "D7"d3- def |\
"Em"g2B Bcd | "Am"e2A ABc | "G"d2d "Em"BAG | "D7"A3 "G"G3 :|

